X:1
T:Title
%%score { ( 1 2 ) | ( 3 4 ) }
L:1/8
M:6/8
K:F
V:1 treble nm="Grand Piano"
V:2 treble 
V:3 bass 
V:4 bass 
V:1
 z3 z z[Q:1/4=100] z/ G/ | A2 A AGF | D2 F C2 A | c2 A .[=B,FA]2 [B,F] | z3 z2 F | A2 A AGF | %6
 D2 F C2 [Fc] | [FA]2 [FA] GFG | F3- F2 c | [Fd]2 [Fd] c2 A | d2 c A2 A | G2 G GA[DF=B] | %12
 [CEc]3- [CEc]2 F/-[FG]/ | A2 A AGF | D2 F C2 [Fc] | .[Fc]2 [=B,FG] .[CFA]2 [_B,CG] | %16
[M:5/8] [A,CF]-[A,CF]- [A,CF]3 |] %17
V:2
 z3 z2 F | x6 | x6 | x6 | [CEG]3- [CEG]2 A,/G/ | x6 | x6 | x6 | x6 | x6 | x6 | x6 | z3 z2 .A, | %13
 x6 | x6 | x6 |[M:5/8] x5 |] %17
V:3
 z3 z2 A,/B,/ | [F,CF]2 [F,CF] [CF][B,C][F,A,C] | [B,,B,]2 [D,B,D] [F,A,]2 [F,CF] | %3
 [F,A,F]2 [F,CF] z GD, | C,3- C,2 z/ B,/ | [F,CF]2 [F,CF] [CF][B,C][F,A,C] | %6
 [B,,B,]2 [D,B,D] [F,A,]2 [A,,F,] | [C,C]2 [C,C] B,A,[C,B,C] | [F,A,C]3- [F,A,C]2 [F,A,F] | %9
 [B,,B,]2 [B,,B,][K:treble] [F,A,F]2 [F,CF] | [B,F]2 [A,CF] [F,CF]2 [F,CF] | %11
 [G,CE]2 [G,CE] [G,F]-[G,CF][K:bass]G, | C,3- C,2 z/ B,/ | [F,CF]2 [F,CF] [CF][B,C][F,A,C] | %14
 [B,,B,]2 [D,B,D] [F,A,]2 [A,,F,] | z FD, z CC, |[M:5/8] F,-F,- F,3 |] %17
V:4
 z3 z2 F, | z3 .F,3 | x6 | z3 .D,3 | z3 z2 F, | z3 .F,3 | x6 | z3 .[C,C]3 | x6 | x3[K:treble] x3 | %10
 x6 | z3 .=B,3[K:bass] | z3 z2 F, | z3 .F,3 | x6 | .[C,A,]3 .C,3 |[M:5/8] x5 |] %17

